lib/assets/buttons/volume_amp_muting.svg

<svg height="24" viewBox="0 0 24 24" width="24" xmlns="http://www.w3.org/2000/svg">
    <path d="m2 8h5l5-6v20l-5-6h-5zm14.59 4-2.59-2.59 1.41-1.41 2.59 2.59 2.59-2.59 1.41 1.41-2.59 2.59 2.59 2.59-1.41 1.41-2.59-2.59-2.59 2.59-1.41-1.41z" />
</svg>

<?xml version="1.0" encoding="UTF-8" standalone="no"?>
<svg
   xmlns:dc="http://purl.org/dc/elements/1.1/"
   xmlns:cc="http://creativecommons.org/ns#"
   xmlns:rdf="http://www.w3.org/1999/02/22-rdf-syntax-ns#"
   xmlns:svg="http://www.w3.org/2000/svg"
   xmlns="http://www.w3.org/2000/svg"
   id="svg2120"
   viewBox="0 0 24 24"
   height="24"
   width="24"
   version="1.1">
  <metadata
     id="metadata2126">
    <rdf:RDF>
      <cc:Work
         rdf:about="">
        <dc:format>image/svg+xml</dc:format>
        <dc:type
           rdf:resource="http://purl.org/dc/dcmitype/StillImage" />
        <dc:title></dc:title>
      </cc:Work>
    </rdf:RDF>
  </metadata>
  <defs
     id="defs2124" />
  <path
     id="path2118"
     d="M 2,8 H 7 L 12,2 V 22 L 7,16 H 2 V 8 M 16.59,12 14,9.41 15.41,8 18,10.59 20.59,8 22,9.41 19.41,12 22,14.59 20.59,16 18,13.41 15.41,16 14,14.59 Z" />
</svg>
